src/assets/metro-icon.svg

<svg width="18" height="12" viewBox="0 0 18 12" fill="none" xmlns="http://www.w3.org/2000/svg">
<g clip-path="url(#clip0_5220_5696)">
<path d="M16.7242 10.1725L12.5173 0L8.97 5.9475L5.4227 0L1.21578 10.1757H0V11.7049H6.33496V10.1757H5.39726L6.30952 7.64887L8.97 11.8251L11.6305 7.64887L12.5427 10.1757H11.605V11.7049H17.9654V10.1757L16.7242 10.1725Z" fill="currentColor"/>
</g>
<defs>
<clipPath id="clip0_5220_5696">
<rect width="18" height="12" fill="white"/>
</clipPath>
</defs>
</svg>

<svg xmlns="http://www.w3.org/2000/svg" width="18" height="12" fill="none" viewBox="0 0 18 12">
    <g clip-path="url(#a)">
        <path fill="currentColor" d="M16.724 10.172 12.517 0 8.97 5.947 5.423 0 1.216 10.176H0v1.529h6.335v-1.53h-.938L6.31 7.65l2.66 4.176 2.66-4.176.913 2.527h-.938v1.529h6.36v-1.53l-1.24-.003Z"/>
    </g>
    <defs>
        <clipPath id="a">
            <path fill="#fff" d="M0 0h18v12H0z"/>
        </clipPath>
    </defs>
</svg>
